X: 100223
M: 2/4
L: 1/16
K: F
u(A>B) |\
c2f2f2 (A>B) | c2G2 G4 | A2d2 d2F>G | A2c2 c4 |\
c2a2 a2g>f | e2d2 d4 | (g>f)e>d c>BA>G | [F2A,2][F2A,2][F2A,2] :|
K: Bb
|: u(D>E) |\


